svgs/thermometer.svg

<svg xmlns="http://www.w3.org/2000/svg" width="192" height="192" fill="none" viewBox="0 0 192 192"><path stroke="#000" stroke-linecap="round" stroke-linejoin="round" stroke-width="12" d="M96 82v63m0 0a7 7 0 1 0 0-14 7 7 0 0 0 0 14m0 25c-17.673 0-32-14.327-32-32 0-6.203 1.765-12.913 4.82-18.409 2.67-4.801 5.18-9.941 5.18-15.434V44c0-12.15 9.85-22 22-22s22 9.85 22 22v60.157c0 5.493 2.511 10.633 5.18 15.434 3.055 5.496 4.82 12.206 4.82 18.409 0 17.673-14.327 32-32 32"/></svg>

<svg width="192" height="192" viewBox="0 0 192 192" fill="none" xmlns="http://www.w3.org/2000/svg">
<path d="M96 82V145M96 145C99.866 145 103 141.866 103 138C103 134.134 99.866 131 96 131C92.134 131 89 134.134 89 138C89 141.866 92.134 145 96 145ZM96 170C78.3269 170 64 155.673 64 138C64 131.797 65.765 125.087 68.8202 119.591C71.4891 114.79 74 109.65 74 104.157V44C74 31.8497 83.8497 22 96 22C108.15 22 118 31.8497 118 44V104.157C118 109.65 120.511 114.79 123.18 119.591C126.235 125.087 128 131.797 128 138C128 155.673 113.673 170 96 170Z" stroke="black" stroke-width="12" stroke-linecap="round" stroke-linejoin="round"/>
</svg>
